fa/bars-staggered.svg

<svg xmlns="http://www.w3.org/2000/svg" viewBox="0 0 512 512" height="1em" width="1em">
  <path d="M0 96c0-17.67 14.33-32 32-32h384c17.7 0 32 14.33 32 32 0 17.7-14.3 32-32 32H32c-17.67 0-32-14.3-32-32zm64 160c0-17.7 14.33-32 32-32h384c17.7 0 32 14.3 32 32s-14.3 32-32 32H96c-17.67 0-32-14.3-32-32zm352 192H32c-17.67 0-32-14.3-32-32s14.33-32 32-32h384c17.7 0 32 14.3 32 32s-14.3 32-32 32z"/>
</svg>

<svg xmlns="http://www.w3.org/2000/svg" viewBox="0 0 512 512" height="1em" width="1em">
  <path d="M0 96C0 78.33 14.33 64 32 64H416C433.7 64 448 78.33 448 96C448 113.7 433.7 128 416 128H32C14.33 128 0 113.7 0 96zM64 256C64 238.3 78.33 224 96 224H480C497.7 224 512 238.3 512 256C512 273.7 497.7 288 480 288H96C78.33 288 64 273.7 64 256zM416 448H32C14.33 448 0 433.7 0 416C0 398.3 14.33 384 32 384H416C433.7 384 448 398.3 448 416C448 433.7 433.7 448 416 448z"/>
</svg>
